X: 1505
T: Greg O'Leary's Jaunty March
C:Vreni Murphy, Townsville, Qld
B: australian traditional tunes wiki
M:2/4
L:1/8
R: March
Q: 1/4=100
K:G
V:1 
B/A/|"G"G>G GB/c/|dg "C"eg/e/|"G"d>B c/B/A/G/|"D"BA- AG/F/|
"Em"E>G "D/F#"F/G/A/c/|"G"B/d/g/d/ "C"ec/A/|"G"dc/A/ "D"D/E/F/G/|"G"AG- G:|
|:D|"G"GG/A/ c/B/A/G/|"D"F>E DF/G/|Ac e/d/c/B/|A/G/E/F/ DB/A/|
"G"GB/d/ g/b/a/g/|"D"fe "C"e/f/g/e/|"D"d>B G/D/E/F/|"G"AG G:|
% abcbook-tune_id 6342d53a2a04ad343b8cb0dc


% abcbook-boost 0
% abcbook-tablature 
% abcbook-transpose 
% abcbook-lastupdated 1665324368355
% abcbook-soundfonts 
% abcbook-repeats 1
% NFF Book 2019
% Bush Traditions recording played by Ray Mulligan

